X: 19004
T: Inspector Donald Campbell Of Ness
R: jig
M: 6/8
K: Amajor
A3 BcB|cef ecA|a2a fec|f2e faa|
A3 BcB|cef ecA|a2c Bcc|ecA A3:|
f3 fec|e3 ecB|c3 cBc|Ace faa|
f2a fec|efe Ace|a2c Bcc|ecA A3:|

